packages/ffe-icons/icons/filled/sm/looks_one.svg

<svg xmlns="http://www.w3.org/2000/svg" height="20" viewBox="0 -960 960 960" width="20"><path d="M490.001-610.001V-324q0 11.069 7.404 18.534 7.405 7.465 18.384 7.465 10.98 0 18.595-7.465 7.615-7.465 7.615-18.534v-305.846q0-13.761-9.196-22.957-9.196-9.196-22.957-9.196H420q-11.069 0-18.534 7.404-7.465 7.405-7.465 18.384 0 10.98 7.465 18.595 7.465 7.615 18.534 7.615h70.001Zm-261.692 446q-27.008 0-45.658-18.65-18.65-18.65-18.65-45.658v-503.382q0-27.008 18.65-45.658 18.65-18.65 45.658-18.65h503.382q27.008 0 45.658 18.65 18.65 18.65 18.65 45.658v503.382q0 27.008-18.65 45.658-18.65 18.65-45.658 18.65H228.309Z"/></svg>

<svg xmlns="http://www.w3.org/2000/svg" height="20" viewBox="0 -960 960 960" width="20"><path d="M490-610v286q0 11.07 7.41 18.53 7.4 7.47 18.38 7.47 10.98 0 18.59-7.47Q542-312.93 542-324v-305.85q0-13.76-9.2-22.95-9.19-9.2-22.95-9.2H420q-11.07 0-18.53 7.41-7.47 7.4-7.47 18.38 0 10.98 7.47 18.59Q408.93-610 420-610h70ZM228.31-164q-27.01 0-45.66-18.65Q164-201.3 164-228.31v-503.38q0-27.01 18.65-45.66Q201.3-796 228.31-796h503.38q27.01 0 45.66 18.65Q796-758.7 796-731.69v503.38q0 27.01-18.65 45.66Q758.7-164 731.69-164H228.31Z"/></svg>
